SVG_Azure_Grouped/Application/API Management Backend.svg

<?xml version="1.0" encoding="UTF-8" standalone="no"?>
<!-- Generated by Microsoft Visio, SVG Export API Management Backend.svg Page-1 -->

<svg
   xmlns:dc="http://purl.org/dc/elements/1.1/"
   xmlns:cc="http://creativecommons.org/ns#"
   xmlns:rdf="http://www.w3.org/1999/02/22-rdf-syntax-ns#"
   xmlns:svg="http://www.w3.org/2000/svg"
   xmlns="http://www.w3.org/2000/svg"
   xmlns:sodipodi="http://sodipodi.sourceforge.net/DTD/sodipodi-0.dtd"
   xmlns:inkscape="http://www.inkscape.org/namespaces/inkscape"
   width="0.7873624in"
   height="0.59066534in"
   viewBox="0 0 56.690001 42.527736"
   xml:space="preserve"
   class="st4"
   version="1.1"
   id="svg51"
   sodipodi:docname="API Management Backend.svg"
   style="font-size:12px;overflow:visible;color-interpolation-filters:sRGB;fill:none;fill-rule:evenodd;stroke-linecap:square;stroke-miterlimit:3"
   inkscape:version="0.92.5 (2060ec1f9f, 2020-04-08)"><metadata
   id="metadata55"><rdf:RDF><cc:Work
       rdf:about=""><dc:format>image/svg+xml</dc:format><dc:type
         rdf:resource="http://purl.org/dc/dcmitype/StillImage" /></cc:Work></rdf:RDF></metadata><sodipodi:namedview
   pagecolor="#ffffff"
   bordercolor="#666666"
   borderopacity="1"
   objecttolerance="10"
   gridtolerance="10"
   guidetolerance="10"
   inkscape:pageopacity="0"
   inkscape:pageshadow="2"
   inkscape:window-width="640"
   inkscape:window-height="480"
   id="namedview53"
   showgrid="false"
   inkscape:zoom="1.6012385"
   inkscape:cx="37.795396"
   inkscape:cy="28.344814"
   inkscape:window-x="0"
   inkscape:window-y="0"
   inkscape:window-maximized="0"
   inkscape:current-layer="svg51" />
	<style
   type="text/css"
   id="style2">
	<![CDATA[
		.st1 {fill:url(#grad0-6);stroke:none;stroke-linecap:butt;stroke-width:34}
		.st2 {fill:#e3e3e3;stroke:none;stroke-linecap:butt;stroke-width:34}
		.st3 {fill:#ffffff;stroke:none;stroke-linecap:butt;stroke-width:34}
		.st4 {fill:none;fill-rule:evenodd;font-size:12px;overflow:visible;stroke-linecap:square;stroke-miterlimit:3}
	]]>
	</style>

	<defs
   id="Patterns_And_Gradients">
		<linearGradient
   id="grad0-6"
   x1="0"
   y1="78.528493"
   x2="49.100948"
   y2="78.528493"
   gradientTransform="scale(1.1545602,0.86613067)"
   gradientUnits="userSpaceOnUse">
			<stop
   offset="0"
   stop-color="#0078d4"
   stop-opacity="1"
   id="stop4" />
			<stop
   offset="0.16"
   stop-color="#1380da"
   stop-opacity="1"
   id="stop6" />
			<stop
   offset="0.53"
   stop-color="#3c91e5"
   stop-opacity="1"
   id="stop8" />
			<stop
   offset="0.82"
   stop-color="#559cec"
   stop-opacity="1"
   id="stop10" />
			<stop
   offset="1"
   stop-color="#5ea0ef"
   stop-opacity="1"
   id="stop12" />
		</linearGradient>
	</defs>
	<g
   id="g49"
   transform="translate(-34,-34.00037)">
		<title
   id="title16">Page-1</title>
		<g
   id="group14961-1"
   transform="translate(34,-34.0157)">
			<title
   id="title18">API Management Backend.14961</title>
			<g
   id="group14962-2">
				<title
   id="title20">Sheet.14962</title>
				<g
   id="shape14963-3">
					<title
   id="title22">Sheet.14963</title>
					<path
   d="M 56.69,97.29 A 12.9449,13.3665 -180 0 0 45.64,84.28 16.189,16.7163 -180 0 0 29.1,68.02 16.5669,17.1065 -180 0 0 13.35,79.3 15.3386,15.8382 -180 0 0 0,94.92 15.5591,16.0658 -180 0 0 15.97,110.53 h 27.24 a 4.59843,4.7482 -180 0 0 0.7,0 13.0079,13.4316 -180 0 0 12.78,-13.24 z"
   class="st1"
   id="path24"
   inkscape:connector-curvature="0"
   style="fill:url(#grad0-6);stroke:none;stroke-width:34;stroke-linecap:butt" />
				</g>
				<g
   id="shape14964-7"
   transform="translate(14.2677,-13.8678)">
					<title
   id="title27">Sheet.14964</title>
					<ellipse
   cx="2.2362199"
   cy="108.23"
   rx="2.2362199"
   ry="2.3090601"
   class="st2"
   id="ellipse29"
   style="fill:#e3e3e3;stroke:none;stroke-width:34;stroke-linecap:butt" />
				</g>
				<g
   id="shape14965-9"
   transform="translate(8.50394,-7.85129)">
					<title
   id="title32">Sheet.14965</title>
					<path
   d="m 15.87,103.09 v -1.85 h -0.25 l -1.92,-0.65 -0.5,-1.27 0.97,-2.15 -1.26,-1.3 H 12.66 L 10.87,96.85 9.64,96.33 8.85,94.08 H 7.06 v 0.26 L 6.43,96.33 5.1,96.85 3.06,95.84 1.8,97.14 v 0.26 l 0.91,1.85 -0.51,1.27 -2.2,0.82 v 2.01 h 0.25 l 1.92,0.65 0.51,1.27 -0.98,2.15 1.26,1.3 h 0.25 l 1.8,-0.94 1.23,0.52 0.78,2.24 h 1.8 v -0.26 l 0.63,-1.98 1.23,-0.52 2.08,1 1.26,-1.3 v -0.26 l -0.92,-1.85 0.51,-1.27 z M 8,105.79 a 3.46457,3.57741 0 1 1 3.46,-3.58 3.43307,3.54489 0 0 1 -3.46,3.58 z"
   class="st3"
   id="path34"
   inkscape:connector-curvature="0"
   style="fill:#ffffff;stroke:none;stroke-width:34;stroke-linecap:butt" />
				</g>
				<g
   id="shape14966-11"
   transform="translate(28.8504,-23.3968)">
					<title
   id="title37">Sheet.14966</title>
					<ellipse
   cx="2.6456699"
   cy="107.808"
   rx="2.6456699"
   ry="2.7318399"
   class="st2"
   id="ellipse39"
   style="fill:#e3e3e3;stroke:none;stroke-width:34;stroke-linecap:butt" />
				</g>
				<g
   id="shape14967-13"
   transform="translate(22.0472,-16.2745)">
					<title
   id="title42">Sheet.14967</title>
					<path
   d="m 18.9,101.73 v -2.22 h -0.29 l -2.33,-0.74 -0.53,-1.66 1.16,-2.6 -1.51,-1.56 h -0.28 l -2.18,1.13 -1.44,-0.61 -0.95,-2.7 H 8.31 v 0.32 l -0.75,2.38 -1.48,0.61 -2.46,-1.2 -1.51,1.56 0.16,0.29 0.88,2.41 -0.5,1.63 L 0,99.64 v 2.38 h 0.31 l 2.3,0.78 0.54,1.46 -1.17,2.6 1.58,1.66 0.31,-0.16 2.15,-1.14 1.48,0.62 0.94,2.7 h 2.14 v -0.33 l 0.76,-2.37 1.48,-0.62 2.49,1.21 1.51,-1.57 -0.16,-0.29 -0.91,-2.34 0.6,-1.53 z m -9.45,3.25 a 4.15748,4.2929 0 1 1 4.16,-4.29 4.12598,4.26038 0 0 1 -4.16,4.29 z"
   class="st3"
   id="path44"
   inkscape:connector-curvature="0"
   style="fill:#ffffff;stroke:none;stroke-width:34;stroke-linecap:butt" />
				</g>
			</g>
		</g>
	</g>
</svg>

<?xml version="1.0" encoding="UTF-8" standalone="no"?>
<!DOCTYPE svg PUBLIC "-//W3C//DTD SVG 1.1//EN" "http://www.w3.org/Graphics/SVG/1.1/DTD/svg11.dtd">
<!-- Generated by Microsoft Visio, SVG Export API Management Backend.svg Page-1 -->
<svg xmlns="http://www.w3.org/2000/svg" xmlns:xlink="http://www.w3.org/1999/xlink" xmlns:ev="http://www.w3.org/2001/xml-events"
		width="1.73185in" height="1.53527in" viewBox="0 0 124.693 110.539" xml:space="preserve" color-interpolation-filters="sRGB"
		class="st4">
	<style type="text/css">
	<![CDATA[
		.st1 {fill:url(#grad0-6);stroke:none;stroke-linecap:butt;stroke-width:34}
		.st2 {fill:#e3e3e3;stroke:none;stroke-linecap:butt;stroke-width:34}
		.st3 {fill:#ffffff;stroke:none;stroke-linecap:butt;stroke-width:34}
		.st4 {fill:none;fill-rule:evenodd;font-size:12px;overflow:visible;stroke-linecap:square;stroke-miterlimit:3}
	]]>
	</style>

	<defs id="Patterns_And_Gradients">
		<linearGradient id="grad0-6" x1="0" y1="0" x2="1" y2="0" gradientTransform="rotate(-90 0.5 0.5)">
			<stop offset="0" stop-color="#0078d4" stop-opacity="1"/>
			<stop offset="0.16" stop-color="#1380da" stop-opacity="1"/>
			<stop offset="0.53" stop-color="#3c91e5" stop-opacity="1"/>
			<stop offset="0.82" stop-color="#559cec" stop-opacity="1"/>
			<stop offset="1" stop-color="#5ea0ef" stop-opacity="1"/>
		</linearGradient>
	</defs>
	<g>
		<title>Page-1</title>
		<g id="group14578-1" transform="translate(34,-34.0157)">
			<title>API Management Backend.14578</title>
			<g id="group14579-2">
				<title>Sheet.14579</title>
				<g id="shape14580-3">
					<title>Sheet.14580</title>
					<path d="M56.69 97.29 A12.9449 13.3665 -180 0 0 45.64 84.28 A16.189 16.7163 -180 0 0 29.1 68.02 A16.5669 17.1065
								 -180 0 0 13.35 79.3 A15.3386 15.8382 -180 0 0 0 94.92 A15.5591 16.0658 -180 0 0 15.97 110.53 L43.21
								 110.53 A4.59843 4.7482 -180 0 0 43.91 110.53 A13.0079 13.4316 -180 0 0 56.69 97.29 Z" class="st1"/>
				</g>
				<g id="shape14581-7" transform="translate(14.2677,-13.8678)">
					<title>Sheet.14581</title>
					<ellipse cx="2.23622" cy="108.23" rx="2.23622" ry="2.30906" class="st2"/>
				</g>
				<g id="shape14582-9" transform="translate(8.50394,-7.85129)">
					<title>Sheet.14582</title>
					<path d="M15.87 103.09 L15.87 101.24 L15.62 101.24 L13.7 100.59 L13.2 99.32 L14.17 97.17 L12.91 95.87 L12.66
								 95.87 L10.87 96.85 L9.64 96.33 L8.85 94.08 L7.06 94.08 L7.06 94.34 L6.43 96.33 L5.1 96.85 L3.06
								 95.84 L1.8 97.14 L1.8 97.4 L2.71 99.25 L2.2 100.52 L0 101.34 L0 103.35 L0.25 103.35 L2.17 104 L2.68
								 105.27 L1.7 107.42 L2.96 108.72 L3.21 108.72 L5.01 107.78 L6.24 108.3 L7.02 110.54 L8.82 110.54
								 L8.82 110.28 L9.45 108.3 L10.68 107.78 L12.76 108.78 L14.02 107.48 L14.02 107.22 L13.1 105.37 L13.61
								 104.1 L15.87 103.09 ZM8 105.79 A3.46457 3.57741 0 1 1 11.46 102.21 A3.43307 3.54489 0 0 1 8 105.79
								 Z" class="st3"/>
				</g>
				<g id="shape14583-11" transform="translate(28.8504,-23.3968)">
					<title>Sheet.14583</title>
					<ellipse cx="2.64567" cy="107.808" rx="2.64567" ry="2.73184" class="st2"/>
				</g>
				<g id="shape14584-13" transform="translate(22.0472,-16.2745)">
					<title>Sheet.14584</title>
					<path d="M18.9 101.73 L18.9 99.51 L18.61 99.51 L16.28 98.77 L15.75 97.11 L16.91 94.51 L15.4 92.95 L15.12 92.95
								 L12.94 94.08 L11.5 93.47 L10.55 90.77 L8.31 90.77 L8.31 91.09 L7.56 93.47 L6.08 94.08 L3.62 92.88
								 L2.11 94.44 L2.27 94.73 L3.15 97.14 L2.65 98.77 L0 99.64 L0 102.02 L0.31 102.02 L2.61 102.8 L3.15
								 104.26 L1.98 106.86 L3.56 108.52 L3.87 108.36 L6.02 107.22 L7.5 107.84 L8.44 110.54 L10.58 110.54
								 L10.58 110.21 L11.34 107.84 L12.82 107.22 L15.31 108.43 L16.82 106.86 L16.66 106.57 L15.75 104.23
								 L16.35 102.7 L18.9 101.73 ZM9.45 104.98 A4.15748 4.2929 0 1 1 13.61 100.69 A4.12598 4.26038 0 0
								 1 9.45 104.98 Z" class="st3"/>
				</g>
			</g>
		</g>
	</g>
</svg>
